X: 170
T: The Sham Fight
%R: jig
B: Chas & Sam Thompson "Twenty Four Country Dances for the Year 1780", London 1780, p.85 #2
F: http://www.vwml.org/browse/browse-collections-dance-tune-books/browse-thompsons1780
Z: 2014 John Chambers <jc:trillian.mit.edu> (added dance description)
M: 6/8
L: 1/8
K: G
% - - - - - - - - - - - - - - - - - - - - - - - - - - - - -
|:\
B2B BAB | c3 B3 | g2d dcB | A3 D3 |\
B2B BAB | c3 B3 | AcB AGF | G3 G,3 :|
|:\
D2d dcB | D2c cBA | gfe dcB | ABG FED |\
D2d dcB | D2c cBA | EcA FEF | G3 G,3 :|
% - - - - - - - - - - Dance description - - - - - - - - - -
%%begintext align
%%   Hey contrary sides .|. Hey on your own
%% sides :|. Lead down two Cu. up again and
%% cast off .|: Hands six round :|:
%%endtext

%%sep 1 1 500
%%sep 1 1 500
